outputs/icons/hardware/speaker_round.svg

<svg xmlns="http://www.w3.org/2000/svg" width="1200" height="1200" fill="none"><g clip-path="url(#a)"><path fill="#000" d="M850 100H350c-55 0-100 45-100 100v800c0 55 45 99.5 100 99.5l500 .5c55 0 100-45 100-100V200c0-55-45-100-100-100M600 200c55 0 100 45 100 100s-45 100-100 100c-55.5 0-100-45-100-100s44.5-100 100-100m0 800c-138 0-250-112-250-250s112-250 250-250 250 112 250 250-112 250-250 250m0-400c-83 0-150 67-150 150s67 150 150 150 150-67 150-150-67-150-150-150"/></g><defs><clipPath id="a"><path fill="#fff" d="M0 0h1200v1200H0z"/></clipPath></defs></svg>

<svg width="1200" height="1200" viewBox="0 0 1200 1200" fill="none" xmlns="http://www.w3.org/2000/svg"><g clip-path="url(#clip0_238_1267)"><path d="M850 100H350C295 100 250 145 250 200V1000C250 1055 295 1099.5 350 1099.5L850 1100C905 1100 950 1055 950 1000V200C950 145 905 100 850 100ZM600 200C655 200 700 245 700 300C700 355 655 400 600 400C544.5 400 500 355 500 300C500 245 544.5 200 600 200ZM600 1000C462 1000 350 888 350 750C350 612 462 500 600 500C738 500 850 612 850 750C850 888 738 1000 600 1000ZM600 600C517 600 450 667 450 750C450 833 517 900 600 900C683 900 750 833 750 750C750 667 683 600 600 600Z" fill="#1D1E23"/></g><defs><clipPath id="clip0_238_1267"><path width="24" fill="white" d="M0 0H1200V1200H0V0z"/></clipPath></defs></svg>
